www/assets/icons/browser_not_supported.svg

<svg width="24" height="24" viewBox="0 0 24 24" xmlns="http://www.w3.org/2000/svg" fill='currentColor'><path d="M19.525 5.31V15.81L21.475 17.76C21.505 17.61 21.525 17.46 21.525 17.31V5.31C21.525 4.21 20.625 3.31 19.525 3.31H7.02498L9.02498 5.31H19.525Z"/><path d="M3.74498 2.63L2.47498 3.90001L3.52498 4.95V17.31C3.52498 18.41 4.42498 19.31 5.52498 19.31H17.885L19.945 21.37L21.215 20.1L3.74498 2.63ZM5.52498 17.31V6.95L15.885 17.31H5.52498Z"/></svg>

<svg xmlns="http://www.w3.org/2000/svg" width="24" height="24" viewBox="0 0 24 24" fill='currentColor'><path d="M19.525 5.31v10.5l1.95 1.95c.03-.15.05-.3.05-.45v-12c0-1.1-.9-2-2-2h-12.5l2 2zM3.745 2.63 2.475 3.9l1.05 1.05v12.36c0 1.1.9 2 2 2h12.36l2.06 2.06 1.27-1.27zm1.78 14.68V6.95l10.36 10.36z"/></svg>
